epam-assets/icon-sources/18/action-delete.svg

<svg width="18" height="18" viewBox="0 0 18 18" fill="none" xmlns="http://www.w3.org/2000/svg">
<g id="18/action-delete">
<path id="icon" fill-rule="evenodd" clip-rule="evenodd" d="M3.75012 14.25C3.75012 15.075 4.42512 15.75 5.25012 15.75H12.7501C13.5751 15.75 14.2501 15.075 14.2501 14.25V6H3.75012V14.25ZM15.0001 3H11.25V2.25H6.75003V3H3.00012V4.5H15.0001V3Z" fill="#6C6F80"/>
</g>
</svg>

<svg xmlns="http://www.w3.org/2000/svg" width="18" height="18" fill="none" viewBox="0 0 18 18">
  <path fill="#6C6F80" fill-rule="evenodd" d="M3.75 14.25c0 .825.675 1.5 1.5 1.5h7.5c.825 0 1.5-.675 1.5-1.5V6H3.75v8.25ZM15 3h-3.75v-.75h-4.5V3H3v1.5h12V3Z" clip-rule="evenodd"/>
</svg>
